;FLAVOR:Marlin
;TIME:10397
;Filament used: 6.44161m
;Layer height: 0.2
;MINX:116.939
;MINY:116.938
;MINZ:0.2
;MAXX:183.061
;MAXY:183.057
;MAXZ:57
;Generated with Cura_SteamEngine 5.4.0
M140 S60
M105
M190 S60
M104 S200
M105
M109 S200
M82 ;absolute extrusion mode
M201 X500.00 Y500.00 Z100.00 E5000.00 ;Setup machine max acceleration
M203 X500.00 Y500.00 Z10.00 E50.00 ;Setup machine max feedrate
M204 P500.00 R1000.00 T500.00 ;Setup Print/Retract/Travel acceleration
M205 X8.00 Y8.00 Z0.40 E5.00 ;Setup Jerk
M220 S100 ;Reset Feedrate
M221 S100 ;Reset Flowrate

G28 ;Home

G92 E0 ;Reset Extruder
G1 Z2.0 F3000 ;Move Z Axis up
G1 X10.1 Y20 Z0.28 F5000.0 ;Move to start position
G1 X10.1 Y200.0 Z0.28 F1500.0 E15 ;Draw the first line
G1 X10.4 Y200.0 Z0.28 F5000.0 ;Move to side a little
G1 X10.4 Y20 Z0.28 F1500.0 E30 ;Draw the second line
G92 E0 ;Reset Extruder
G1 Z2.0 F3000 ;Move Z Axis up

G92 E0
G92 E0
G1 F1500 E-6.5
;LAYER_COUNT:285
;LAYER:0
M107
G0 F6000 X126.826 Y126.418 Z0.2
;TYPE:SKIRT
G1 F1500 E0
G1 F1200 X127.329 Y125.953 E0.02278
G1 X128.942 Y124.538 E0.09415
G1 X129.494 Y124.07 E0.11822
G1 X130.22 Y123.509 E0.14874
G1 X130.791 Y123.112 E0.17187
G1 X132.261 Y122.128 E0.2307
G1 X133.036 Y121.627 E0.2614
G1 X133.937 Y121.105 E0.29603
G1 X134.516 Y120.808 E0.31767
G1 X136.259 Y119.951 E0.38227
G1 X136.943 Y119.631 E0.40739
G1 X137.844 Y119.256 E0.43985
G1 X138.422 Y119.05 E0.46026
G1 X140.301 Y118.413 E0.52625
G1 X140.932 Y118.21 E0.54829
G1 X141.938 Y117.939 E0.58295
G1 X142.565 Y117.804 E0.60428
G1 X144.288 Y117.461 E0.66271
G1 X145.188 Y117.296 E0.69314
G1 X146.177 Y117.163 E0.72633
G1 X146.655 Y117.121 E0.74229
G1 X148.747 Y116.984 E0.81202
G1 X149.463 Y116.947 E0.83587
G1 X150.315 Y116.938 E0.86421
G1 X150.949 Y116.964 E0.88531
G1 X153.098 Y117.103 E0.95694
G1 X153.865 Y117.168 E0.98254
G1 X154.838 Y117.296 E1.01518
G1 X155.509 Y117.419 E1.03787
G1 X157.326 Y117.782 E1.0995
G1 X158.071 Y117.944 E1.12486
G1 X158.889 Y118.155 E1.15295
G1 X159.512 Y118.349 E1.17465
G1 X161.443 Y119.005 E1.24249
G1 X162.16 Y119.26 E1.2678
G1 X163.023 Y119.61 E1.29877
G1 X163.561 Y119.861 E1.31852
G1 X165.476 Y120.805 E1.38953
G1 X166.083 Y121.118 E1.41224
G1 X166.86 Y121.559 E1.44196
G1 X167.385 Y121.893 E1.46265
G1 X169.005 Y122.977 E1.52748
G1 X169.714 Y123.465 E1.55611
G1 X170.394 Y123.977 E1.58442
G1 X170.901 Y124.399 E1.60636
G1 X172.363 Y125.681 E1.67104
G1 X172.981 Y126.24 E1.69875
G1 X173.682 Y126.933 E1.73154
G1 X174.206 Y127.508 E1.75741
G1 X175.457 Y128.938 E1.82061
G1 X175.92 Y129.485 E1.84444
G1 X176.459 Y130.177 E1.87362
G1 X176.798 Y130.66 E1.89324
G1 X177.854 Y132.236 E1.95634
G1 X178.371 Y133.035 E1.98799
G1 X178.887 Y133.924 E2.02218
G1 X179.199 Y134.531 E2.04488
G1 X180.033 Y136.228 E2.10777
G1 X180.348 Y136.893 E2.13224
G1 X180.728 Y137.806 E2.16514
G1 X180.95 Y138.422 E2.18691
G1 X181.587 Y140.301 E2.2529
G1 X181.79 Y140.932 E2.27495
G1 X182.061 Y141.938 E2.3096
G1 X182.196 Y142.565 E2.33093
G1 X182.539 Y144.288 E2.38937
G1 X182.704 Y145.188 E2.4198
G1 X182.837 Y146.177 E2.45299
G1 X182.879 Y146.655 E2.46895
G1 X183.015 Y148.743 E2.53854
G1 X183.052 Y149.454 E2.56222
G1 X183.061 Y150.334 E2.59149
G1 X183.036 Y150.923 E2.6111
G1 X182.912 Y152.866 E2.67586
G1 X182.839 Y153.789 E2.70665
G1 X182.71 Y154.796 E2.74042
G1 X182.583 Y155.498 E2.76415
G1 X182.25 Y157.167 E2.82075
G1 X182.062 Y158.047 E2.85068
G1 X181.834 Y158.93 E2.88101
G1 X181.652 Y159.508 E2.90117
G1 X180.998 Y161.429 E2.96866
G1 X180.745 Y162.145 E2.99392
G1 X180.394 Y163.013 E3.02506
G1 X180.148 Y163.541 E3.04443
G1 X179.299 Y165.265 E3.10835
G1 X178.898 Y166.053 E3.13776
G1 X178.394 Y166.934 E3.17152
G1 X178.008 Y167.534 E3.19525
G1 X177.016 Y169.017 E3.25459
G1 X176.533 Y169.716 E3.28285
G1 X176.009 Y170.411 E3.3118
G1 X175.603 Y170.899 E3.33291
G1 X174.315 Y172.368 E3.39789
G1 X173.713 Y173.03 E3.42765
G1 X173.032 Y173.715 E3.45978
G1 X172.51 Y174.191 E3.48327
G1 X171.125 Y175.402 E3.54447
G1 X170.532 Y175.908 E3.57039
G1 X169.88 Y176.419 E3.59795
G1 X169.361 Y176.784 E3.61905
G1 X167.716 Y177.885 E3.68489
G1 X167.013 Y178.342 E3.71277
G1 X166.213 Y178.815 E3.74368
G1 X165.644 Y179.112 E3.76503
G1 X163.728 Y180.055 E3.83606
G1 X163.046 Y180.374 E3.8611
G1 X162.196 Y180.727 E3.89171
G1 X161.576 Y180.952 E3.91365
G1 X159.852 Y181.537 E3.9742
G1 X159.063 Y181.791 E4.00177
G1 X158.063 Y182.061 E4.03622
G1 X157.436 Y182.196 E4.05755
G1 X155.559 Y182.569 E4.1212
G1 X154.815 Y182.705 E4.14636
G1 X153.942 Y182.826 E4.17567
G1 X153.348 Y182.879 E4.19551
G1 X151.363 Y183.009 E4.26167
G1 X150.51 Y183.053 E4.29008
G1 X149.518 Y183.057 E4.32307
G1 X148.807 Y183.022 E4.34675
G1 X146.985 Y182.902 E4.40748
G1 X146.218 Y182.841 E4.43307
G1 X145.183 Y182.707 E4.46778
G1 X144.504 Y182.583 E4.49074
G1 X142.835 Y182.251 E4.54734
G1 X141.946 Y182.06 E4.57758
G1 X141.077 Y181.835 E4.60744
G1 X140.488 Y181.651 E4.62796
G1 X138.557 Y180.995 E4.69579
G1 X137.84 Y180.74 E4.7211
G1 X136.977 Y180.39 E4.75208
G1 X136.439 Y180.139 E4.77182
G1 X134.524 Y179.195 E4.84284
G1 X133.945 Y178.898 E4.86448
G1 X133.085 Y178.406 E4.89743
G1 X132.527 Y178.048 E4.91948
G1 X130.856 Y176.93 E4.98635
G1 X130.288 Y176.537 E5.00933
G1 X129.58 Y176.003 E5.03882
G1 X129.101 Y175.602 E5.0596
G1 X127.495 Y174.192 E5.13068
G1 X126.968 Y173.712 E5.15439
G1 X126.307 Y173.056 E5.18536
G1 X125.852 Y172.557 E5.20782
G1 X124.53 Y171.047 E5.27457
G1 X124.068 Y170.499 E5.29841
G1 X123.549 Y169.833 E5.3265
G1 X123.196 Y169.331 E5.34691
G1 X122.046 Y167.613 E5.41567
G1 X121.647 Y166.997 E5.44008
G1 X121.033 Y165.921 E5.48128
G1 X120.051 Y163.951 E5.5545
G1 X119.647 Y163.097 E5.58592
G1 X119.25 Y162.139 E5.62041
G1 X119.05 Y161.578 E5.64022
G1 X118.413 Y159.699 E5.70621
G1 X118.21 Y159.068 E5.72825
G1 X117.94 Y158.066 E5.76277
G1 X117.798 Y157.407 E5.78519
G1 X117.422 Y155.512 E5.84945
G1 X117.301 Y154.855 E5.87167
G1 X117.184 Y154.025 E5.89955
G1 X117.122 Y153.361 E5.92173
G1 X116.993 Y151.397 E5.98719
G1 X116.947 Y150.523 E6.0163
G1 X116.939 Y149.65 E6.04534
G1 X116.964 Y149.06 E6.06498
G1 X117.098 Y146.988 E6.13404
G1 X117.159 Y146.219 E6.1597
G1 X117.29 Y145.197 E6.19397
G1 X117.417 Y144.506 E6.21733
G1 X117.785 Y142.66 E6.27994
G1 X117.938 Y141.945 E6.30426
G1 X118.249 Y140.809 E6.34343
G1 X118.998 Y138.577 E6.42174
G1 X119.263 Y137.836 E6.44791
G1 X119.636 Y136.923 E6.48071
G1 X119.914 Y136.329 E6.50253
G1 X120.715 Y134.708 E6.56267
G1 X121.115 Y133.924 E6.59194
G1 X121.626 Y133.035 E6.62604
G1 X122.004 Y132.448 E6.64927
G1 X122.968 Y131.006 E6.70696
G1 X123.468 Y130.283 E6.73619
G1 X124.006 Y129.569 E6.76593
G1 X124.399 Y129.1 E6.78628
G1 X125.782 Y127.523 E6.85604
G1 X126.228 Y127.031 E6.87813
G1 X126.826 Y126.418 E6.90661
G0 F6000 X127.098 Y126.712
G1 F1200 X127.593 Y126.254 E6.92904
G1 X129.201 Y124.843 E7.0002
G1 X129.739 Y124.387 E7.02365
G1 X130.465 Y123.826 E7.05417
G1 X131.013 Y123.444 E7.07639
G1 X132.478 Y122.464 E7.13501
G1 X133.236 Y121.973 E7.16505
G1 X134.12 Y121.461 E7.19903
G1 X134.692 Y121.167 E7.22042
G1 X136.429 Y120.313 E7.2848
G1 X137.097 Y120 E7.30933
G1 X137.979 Y119.633 E7.34111
G1 X138.55 Y119.429 E7.36127
G1 X140.424 Y118.794 E7.42708
G1 X141.055 Y118.591 E7.44913
G1 X142.022 Y118.33 E7.48244
G1 X142.643 Y118.196 E7.50357
G1 X144.36 Y117.854 E7.5618
G1 X145.241 Y117.692 E7.5916
G1 X146.212 Y117.561 E7.62418
G1 X146.681 Y117.52 E7.63984
G1 X148.768 Y117.383 E7.70941
G1 X149.467 Y117.347 E7.73269
G1 X150.299 Y117.338 E7.76036
G1 X150.923 Y117.363 E7.78113
G1 X153.064 Y117.502 E7.85249
G1 X153.813 Y117.565 E7.87749
G1 X154.766 Y117.69 E7.90946
G1 X155.431 Y117.811 E7.93194
G1 X157.241 Y118.173 E7.99333
G1 X157.971 Y118.331 E8.01817
G1 X158.77 Y118.537 E8.04562
G1 X159.383 Y118.728 E8.06697
G1 X161.309 Y119.382 E8.13463
G1 X162.01 Y119.631 E8.15937
G1 X162.854 Y119.973 E8.18966
G1 X163.384 Y120.22 E8.2091
G1 X165.293 Y121.161 E8.27989
G1 X165.886 Y121.466 E8.30207
G1 X166.645 Y121.896 E8.33109
G1 X167.163 Y122.226 E8.35151
G1 X168.778 Y123.306 E8.41613
G1 X169.473 Y123.785 E8.44421
G1 X170.153 Y124.297 E8.47252
G1 X170.637 Y124.7 E8.49347
G1 X172.095 Y125.978 E8.55795
G1 X172.7 Y126.524 E8.58506
G1 X173.386 Y127.203 E8.61716
G1 X173.905 Y127.772 E8.64278
G1 X175.152 Y129.196 E8.70573
G1 X175.605 Y129.731 E8.72905
G1 X176.132 Y130.407 E8.75756
G1 X176.466 Y130.883 E8.7769
G1 X177.518 Y132.453 E8.83975
G1 X178.025 Y133.236 E8.87078
G1 X178.531 Y134.107 E8.90428
G1 X178.84 Y134.708 E8.92676
G1 X179.672 Y136.399 E8.98944
G1 X179.979 Y137.047 E9.01329
G1 X180.352 Y137.942 E9.04554
G1 X180.571 Y138.55 E9.06703
G1 X181.206 Y140.424 E9.13284
G1 X181.409 Y141.055 E9.15489
G1 X181.67 Y142.022 E9.1882
G1 X181.804 Y142.643 E9.20933
G1 X182.146 Y144.36 E9.26756
G1 X182.308 Y145.241 E9.29736
G1 X182.439 Y146.212 E9.32995
G1 X182.48 Y146.681 E9.3456
G1 X182.616 Y148.764 E9.41503
G1 X182.652 Y149.458 E9.43815
G1 X182.661 Y150.317 E9.46672
G1 X182.637 Y150.897 E9.48603
G1 X182.513 Y152.835 E9.55062
G1 X182.442 Y153.738 E9.58074
G1 X182.316 Y154.725 E9.61384
G1 X182.191 Y155.42 E9.63732
G1 X181.859 Y157.084 E9.69376
G1 X181.675 Y157.947 E9.72311
G1 X181.452 Y158.81 E9.75275
G1 X181.273 Y159.379 E9.77259
G1 X180.621 Y161.296 E9.83994
G1 X180.374 Y161.995 E9.8646
G1 X180.031 Y162.844 E9.89505
G1 X179.789 Y163.364 E9.91413
G1 X178.943 Y165.084 E9.97788
G1 X178.551 Y165.854 E10.00662
G1 X178.057 Y166.718 E10.03972
G1 X177.676 Y167.312 E10.06319
G1 X176.687 Y168.79 E10.12234
G1 X176.214 Y169.475 E10.15003
G1 X175.701 Y170.155 E10.17836
G1 X175.302 Y170.635 E10.19912
G1 X174.019 Y172.099 E10.26387
G1 X173.43 Y172.748 E10.29302
G1 X172.762 Y173.419 E10.32451
G1 X172.24 Y173.895 E10.348
G1 X170.865 Y175.098 E10.40877
G1 X170.285 Y175.593 E10.43413
G1 X169.633 Y176.104 E10.46168
G1 X169.138 Y176.452 E10.48181
G1 X167.498 Y177.55 E10.54745
G1 X166.81 Y177.998 E10.57476
G1 X166.028 Y178.46 E10.60497
G1 X165.467 Y178.753 E10.62602
G1 X163.559 Y179.693 E10.69676
G1 X162.892 Y180.005 E10.72125
G1 X162.06 Y180.351 E10.75122
G1 X161.447 Y180.573 E10.77291
G1 X159.729 Y181.156 E10.83325
G1 X158.94 Y181.41 E10.86082
G1 X157.978 Y181.67 E10.89396
G1 X157.358 Y181.804 E10.91506
G1 X155.487 Y182.176 E10.97851
G1 X154.76 Y182.309 E11.00309
G1 X153.907 Y182.428 E11.03173
G1 X153.322 Y182.48 E11.05127
G1 X151.342 Y182.61 E11.11726
G1 X150.508 Y182.653 E11.14504
G1 X149.537 Y182.657 E11.17734
G1 X148.833 Y182.623 E11.20078
G1 X147.016 Y182.503 E11.26134
G1 X146.269 Y182.444 E11.28627
G1 X145.254 Y182.313 E11.32031
G1 X144.582 Y182.191 E11.34302
G1 X142.919 Y181.86 E11.39942
G1 X142.046 Y181.673 E11.42911
G1 X141.196 Y181.453 E11.45832
G1 X140.617 Y181.272 E11.47849
G1 X138.691 Y180.618 E11.54614
G1 X137.99 Y180.369 E11.57089
G1 X137.146 Y180.027 E11.60117
G1 X136.616 Y179.78 E11.62062
G1 X134.707 Y178.839 E11.69141
G1 X134.128 Y178.542 E11.71305
G1 X133.301 Y178.07 E11.74473
G1 X132.749 Y177.715 E11.76655
G1 X131.083 Y176.601 E11.83321
G1 X130.529 Y176.218 E11.85561
G1 X129.837 Y175.696 E11.88444
G1 X129.365 Y175.301 E11.90491
G1 X127.764 Y173.896 E11.97576
G1 X127.25 Y173.428 E11.99888
G1 X126.602 Y172.786 E12.02922
G1 X126.153 Y172.294 E12.05137
G1 X124.836 Y170.789 E12.11789
G1 X124.383 Y170.253 E12.14123
G1 X123.876 Y169.603 E12.16865
G1 X123.528 Y169.108 E12.18877
G1 X122.382 Y167.396 E12.2573
G1 X121.983 Y166.78 E12.28171
G1 X121.391 Y165.743 E12.32142
G1 X120.413 Y163.78 E12.39437
G1 X120.009 Y162.926 E12.42579
G1 X119.627 Y162.005 E12.45895
G1 X119.429 Y161.45 E12.47855
G1 X118.794 Y159.576 E12.54436
G1 X118.591 Y158.945 E12.56641
G1 X118.331 Y157.981 E12.59962
G1 X118.19 Y157.329 E12.6218
G1 X117.815 Y155.44 E12.68586
G1 X117.697 Y154.799 E12.70753
G1 X117.582 Y153.988 E12.73478
G1 X117.521 Y153.335 E12.75659
G1 X117.392 Y151.376 E12.82189
G1 X117.347 Y150.519 E12.85043
G1 X117.339 Y149.667 E12.87877
G1 X117.363 Y149.086 E12.89811
G1 X117.497 Y147.019 E12.96701
G1 X117.556 Y146.27 E12.99199
G1 X117.687 Y145.248 E13.02626
G1 X117.809 Y144.584 E13.04872
G1 X118.176 Y142.744 E13.11112
G1 X118.324 Y142.051 E13.13469
G1 X118.635 Y140.915 E13.17387
G1 X119.375 Y138.711 E13.25119
G1 X119.633 Y137.987 E13.27676
G1 X119.998 Y137.093 E13.30887
G1 X120.273 Y136.506 E13.33043
G1 X121.071 Y134.89 E13.39038
G1 X121.462 Y134.123 E13.41901
G1 X121.973 Y133.234 E13.45312
G1 X122.336 Y132.67 E13.47543
G1 X123.297 Y131.233 E13.53292
G1 X123.787 Y130.524 E13.56159
G1 X124.313 Y129.826 E13.59066
G1 X124.7 Y129.364 E13.6107
G1 X126.079 Y127.791 E13.68028
G1 X126.514 Y127.31 E13.70185
G1 X127.098 Y126.712 E13.72965
G0 F6000 X127.369 Y127.006
G1 F1200 X127.857 Y126.555 E13.75175
G1 X129.46 Y125.148 E13.82269
G1 X129.984 Y124.704 E13.84553
G1 X130.71 Y124.143 E13.87605
G1 X131.235 Y123.777 E13.89734
G1 X132.696 Y122.8 E13.95579
G1 X133.437 Y122.319 E13.98518
G1 X134.303 Y121.817 E14.01847
G1 X134.869 Y121.526 E14.03964
G1 X136.599 Y120.675 E14.10376
G1 X137.25 Y120.369 E14.12769
G1 X138.114 Y120.01 E14.15881
G1 X138.678 Y119.808 E14.17873
G1 X140.547 Y119.175 E14.24436
G1 X141.178 Y118.972 E14.26641
G1 X142.107 Y118.721 E14.29842
G1 X142.721 Y118.588 E14.31931
G1 X144.432 Y118.247 E14.37734
G1 X145.295 Y118.088 E14.40652
G1 X146.247 Y117.959 E14.43848
G1 X146.707 Y117.919 E14.45384
G1 X148.789 Y117.782 E14.52323
G1 X149.471 Y117.747 E14.54595
G1 X150.283 Y117.738 E14.57295
G1 X150.897 Y117.762 E14.59339
G1 X153.031 Y117.901 E14.66452
G1 X153.761 Y117.962 E14.68888
G1 X154.695 Y118.084 E14.72021
G1 X155.353 Y118.203 E14.74245
G1 X157.157 Y118.564 E14.80364
G1 X157.871 Y118.718 E14.82794
G1 X158.651 Y118.919 E14.85473
G1 X159.254 Y119.107 E14.87574
G1 X161.175 Y119.759 E14.94321
G1 X161.86 Y120.002 E14.96738
G1 X162.685 Y120.336 E14.99699
G1 X163.207 Y120.579 E15.01614
G1 X165.11 Y121.517 E15.0867
G1 X165.689 Y121.814 E15.10835
G1 X166.43 Y122.234 E15.13668
G1 X166.941 Y122.559 E15.15682
G1 X168.551 Y123.635 E15.22122
G1 X169.233 Y124.105 E15.24877
G1 X169.897 Y124.604 E15.2764
G1 X170.373 Y125.001 E15.29701
G1 X171.827 Y126.275 E15.36131
G1 X172.419 Y126.808 E15.38781
G1 X173.09 Y127.472 E15.4192
G1 X173.604 Y128.036 E15.44458
G1 X174.847 Y129.455 E15.50733
G1 X175.29 Y129.977 E15.5301
G1 X175.805 Y130.637 E15.55794
G1 X176.134 Y131.105 E15.57697
G1 X177.182 Y132.671 E15.63964
G1 X177.679 Y133.437 E15.67001
G1 X178.175 Y134.29 E15.70283
G1 X178.481 Y134.885 E15.72508
G1 X179.311 Y136.57 E15.78756
G1 X179.61 Y137.201 E15.81078
G1 X179.976 Y138.077 E15.84236
G1 X180.192 Y138.678 E15.8636
G1 X180.825 Y140.547 E15.92923
G1 X181.028 Y141.178 E15.95128
G1 X181.279 Y142.107 E15.98328
G1 X181.412 Y142.721 E16.00418
G1 X181.753 Y144.432 E16.06221
G1 X181.912 Y145.295 E16.09139
G1 X182.041 Y146.247 E16.12335
G1 X182.081 Y146.707 E16.1387
G1 X182.217 Y148.785 E16.20797
G1 X182.252 Y149.462 E16.23051
G1 X182.261 Y150.301 E16.25842
G1 X182.238 Y150.871 E16.27739
G1 X182.114 Y152.804 E16.34182
G1 X182.045 Y153.688 E16.37131
G1 X181.922 Y154.655 E16.40373
G1 X181.799 Y155.342 E16.42694
G1 X181.468 Y157.001 E16.48321
G1 X181.288 Y157.847 E16.51198
G1 X181.07 Y158.69 E16.54094
G1 X180.894 Y159.25 E16.56046
G1 X180.244 Y161.163 E16.62766
G1 X180.003 Y161.845 E16.65172
G1 X179.66 Y162.694 E16.68218
G1 X179.43 Y163.187 E16.70027
G1 X178.586 Y164.903 E16.76387
G1 X178.204 Y165.655 E16.79193
G1 X177.71 Y166.519 E16.82503
G1 X177.343 Y167.09 E16.84761
G1 X176.358 Y168.563 E16.90654
G1 X175.895 Y169.234 E16.93366
G1 X175.394 Y169.899 E16.96135
G1 X175.001 Y170.371 E16.98178
G1 X173.723 Y171.83 E17.04629
G1 X173.147 Y172.466 E17.07483
G1 X172.492 Y173.124 E17.10571
G1 X171.977 Y173.594 E17.1289
G1 X170.606 Y174.794 E17.1895
G1 X170.038 Y175.278 E17.21432
G1 X169.386 Y175.789 E17.24187
G1 X168.916 Y176.12 E17.26099
G1 X167.28 Y177.215 E17.32647
G1 X166.606 Y177.654 E17.35322
G1 X165.843 Y178.105 E17.3827
G1 X165.29 Y178.394 E17.40345
G1 X163.389 Y179.331 E17.47394
G1 X162.738 Y179.636 E17.49785
G1 X161.924 Y179.975 E17.52718
G1 X161.319 Y180.194 E17.54858
G1 X159.606 Y180.775 E17.60874
G1 X158.817 Y181.029 E17.63631
G1 X157.893 Y181.279 E17.66815
G1 X157.28 Y181.412 E17.68901
G1 X155.415 Y181.783 E17.75226
G1 X154.704 Y181.913 E17.7763
