;FLAVOR:Marlin
;TIME:9059
;Filament used: 7.00287m
;Layer height: 0.2
;MINX:116.845
;MINY:116.846
;MINZ:0.2
;MAXX:183.155
;MAXY:183.152
;MAXZ:57
;Generated with Cura_SteamEngine 5.4.0
M140 S60
M105
M190 S60
M104 S200
M105
M109 S200
M82 ;absolute extrusion mode
M201 X500.00 Y500.00 Z100.00 E5000.00 ;Setup machine max acceleration
M203 X500.00 Y500.00 Z10.00 E50.00 ;Setup machine max feedrate
M204 P500.00 R1000.00 T500.00 ;Setup Print/Retract/Travel acceleration
M205 X8.00 Y8.00 Z0.40 E5.00 ;Setup Jerk
M220 S100 ;Reset Feedrate
M221 S100 ;Reset Flowrate

G28 ;Home

G92 E0 ;Reset Extruder
G1 Z2.0 F3000 ;Move Z Axis up
G1 X10.1 Y20 Z0.28 F5000.0 ;Move to start position
G1 X10.1 Y200.0 Z0.28 F1500.0 E15 ;Draw the first line
G1 X10.4 Y200.0 Z0.28 F5000.0 ;Move to side a little
G1 X10.4 Y20 Z0.28 F1500.0 E30 ;Draw the second line
G92 E0 ;Reset Extruder
G1 Z2.0 F3000 ;Move Z Axis up

G92 E0
G92 E0
G1 F1500 E-6.5
;LAYER_COUNT:285
;LAYER:0
M107
G0 F6000 X126.794 Y126.318 Z0.2
;TYPE:SKIRT
G1 F1500 E0
G1 F1200 X127.254 Y125.893 E0.02083
G1 X128.845 Y124.498 E0.09121
G1 X129.428 Y124.004 E0.11662
G1 X130.224 Y123.39 E0.15006
G1 X130.777 Y123.007 E0.17243
G1 X132.24 Y122.03 E0.23094
G1 X132.946 Y121.572 E0.25893
G1 X133.818 Y121.064 E0.2925
G1 X134.442 Y120.742 E0.31586
G1 X136.797 Y119.592 E0.40302
G1 X137.597 Y119.251 E0.43195
G1 X138.224 Y119.019 E0.45418
G1 X140.061 Y118.395 E0.51871
G1 X140.911 Y118.119 E0.54844
G1 X141.88 Y117.856 E0.58183
G1 X142.616 Y117.697 E0.60687
G1 X144.433 Y117.338 E0.66848
G1 X145.138 Y117.208 E0.69232
G1 X146.041 Y117.082 E0.72264
G1 X146.677 Y117.025 E0.74388
G1 X148.794 Y116.886 E0.81445
G1 X149.508 Y116.853 E0.83822
G1 X150.376 Y116.846 E0.86709
G1 X150.987 Y116.873 E0.88743
G1 X152.866 Y116.993 E0.95006
G1 X153.809 Y117.069 E0.98152
G1 X154.706 Y117.18 E1.01158
G1 X155.305 Y117.285 E1.03181
G1 X157.234 Y117.667 E1.09721
G1 X158.058 Y117.843 E1.12524
G1 X158.93 Y118.068 E1.15519
G1 X159.51 Y118.251 E1.17542
G1 X161.461 Y118.912 E1.24393
G1 X162.206 Y119.177 E1.27023
G1 X163.06 Y119.524 E1.30089
G1 X163.581 Y119.767 E1.32001
G1 X165.48 Y120.704 E1.39044
G1 X166.115 Y121.03 E1.41419
G1 X166.96 Y121.513 E1.44656
G1 X167.53 Y121.876 E1.46903
G1 X169.077 Y122.911 E1.53094
G1 X169.754 Y123.377 E1.55828
G1 X170.448 Y123.9 E1.58718
G1 X170.949 Y124.317 E1.60886
G1 X172.564 Y125.734 E1.68032
G1 X173.107 Y126.229 E1.70476
G1 X173.682 Y126.794 E1.73157
G1 X174.107 Y127.254 E1.7524
G1 X175.502 Y128.845 E1.82278
G1 X175.995 Y129.427 E1.84815
G1 X176.595 Y130.205 E1.88082
G1 X176.856 Y130.576 E1.89591
G1 X178.046 Y132.355 E1.9671
G1 X178.429 Y132.947 E1.99055
G1 X178.936 Y133.818 E2.02407
G1 X179.258 Y134.442 E2.04742
G1 X180.408 Y136.797 E2.13459
G1 X180.749 Y137.597 E2.16352
G1 X180.981 Y138.224 E2.18575
G1 X181.605 Y140.062 E2.25031
G1 X181.877 Y140.901 E2.27965
G1 X182.12 Y141.778 E2.30991
G1 X182.252 Y142.367 E2.32999
G1 X182.639 Y144.307 E2.39579
G1 X182.799 Y145.183 E2.4254
G1 X182.919 Y146.046 E2.45438
G1 X182.971 Y146.627 E2.47379
G1 X183.096 Y148.527 E2.53712
G1 X183.146 Y149.473 E2.56862
G1 X183.155 Y150.369 E2.59843
G1 X183.129 Y150.972 E2.6185
G1 X183.007 Y152.869 E2.68173
G1 X182.933 Y153.796 E2.71266
G1 X182.82 Y154.706 E2.74316
G1 X182.715 Y155.303 E2.76332
G1 X182.333 Y157.233 E2.82875
G1 X182.159 Y158.05 E2.85654
G1 X181.932 Y158.925 E2.8866
G1 X181.742 Y159.532 E2.90776
G1 X181.132 Y161.334 E2.97103
G1 X180.824 Y162.199 E3.00157
G1 X180.499 Y163.007 E3.03054
G1 X180.236 Y163.577 E3.05142
G1 X179.349 Y165.376 E3.11813
G1 X178.985 Y166.09 E3.14479
G1 X178.519 Y166.91 E3.17616
G1 X178.128 Y167.524 E3.20037
G1 X177.09 Y169.077 E3.2625
G1 X176.636 Y169.736 E3.28911
G1 X176.113 Y170.432 E3.31807
G1 X175.683 Y170.949 E3.34043
G1 X174.266 Y172.564 E3.41189
G1 X173.771 Y173.107 E3.43633
G1 X173.206 Y173.682 E3.46315
G1 X172.746 Y174.107 E3.48398
G1 X171.153 Y175.503 E3.55442
G1 X170.571 Y175.996 E3.57979
G1 X169.771 Y176.613 E3.6134
G1 X169.177 Y177.024 E3.63742
G1 X167.777 Y177.958 E3.6934
G1 X167.015 Y178.45 E3.72356
G1 X166.283 Y178.882 E3.75183
G1 X165.714 Y179.181 E3.77321
G1 X163.81 Y180.12 E3.84382
G1 X163.126 Y180.441 E3.86895
G1 X162.205 Y180.823 E3.90212
G1 X161.539 Y181.063 E3.92566
G1 X159.926 Y181.609 E3.9823
G1 X159.094 Y181.879 E4.01139
G1 X158.12 Y182.144 E4.04497
G1 X157.384 Y182.303 E4.07001
G1 X155.567 Y182.662 E4.13161
G1 X154.862 Y182.792 E4.15546
G1 X153.959 Y182.918 E4.18578
G1 X153.323 Y182.975 E4.20702
G1 X151.206 Y183.114 E4.27758
G1 X150.49 Y183.147 E4.30142
G1 X149.572 Y183.152 E4.33196
G1 X148.874 Y183.12 E4.3552
G1 X146.918 Y182.991 E4.42039
G1 X146.176 Y182.93 E4.44516
G1 X145.229 Y182.81 E4.47691
G1 X144.565 Y182.691 E4.49934
G1 X142.79 Y182.338 E4.55953
G1 X141.913 Y182.149 E4.58937
G1 X141.066 Y181.931 E4.61846
G1 X140.508 Y181.755 E4.63792
G1 X138.526 Y181.084 E4.70752
G1 X137.812 Y180.83 E4.73273
G1 X136.975 Y180.491 E4.76276
G1 X136.427 Y180.237 E4.78285
G1 X134.626 Y179.349 E4.84964
G1 X133.878 Y178.966 E4.87759
G1 X133.027 Y178.481 E4.91017
G1 X132.476 Y178.127 E4.93195
G1 X130.78 Y176.993 E4.99981
G1 X130.217 Y176.601 E5.02262
G1 X129.528 Y176.08 E5.05135
G1 X129.051 Y175.683 E5.07199
G1 X127.436 Y174.266 E5.14345
G1 X126.893 Y173.771 E5.16789
G1 X126.318 Y173.207 E5.19468
G1 X125.893 Y172.747 E5.21551
G1 X124.497 Y171.154 E5.28596
G1 X124.003 Y170.571 E5.31138
G1 X123.397 Y169.785 E5.34439
G1 X123.012 Y169.23 E5.36685
G1 X121.954 Y167.646 E5.43021
G1 X121.569 Y167.051 E5.45378
G1 X121.057 Y166.17 E5.48767
G1 X120.742 Y165.562 E5.51045
G1 X119.875 Y163.798 E5.57582
G1 X119.566 Y163.147 E5.59979
G1 X119.199 Y162.269 E5.63144
G1 X118.974 Y161.647 E5.65344
G1 X118.342 Y159.781 E5.71897
G1 X118.121 Y159.096 E5.7429
G1 X117.885 Y158.242 E5.77237
G1 X117.739 Y157.588 E5.79466
G1 X117.326 Y155.516 E5.86493
G1 X117.2 Y154.813 E5.88869
G1 X117.081 Y153.953 E5.91756
G1 X117.029 Y153.372 E5.93696
G1 X116.896 Y151.336 E6.00483
G1 X116.854 Y150.542 E6.03127
G1 X116.845 Y149.652 E6.06087
G1 X116.871 Y149.028 E6.08165
G1 X116.993 Y147.13 E6.1449
G1 X117.069 Y146.19 E6.17627
G1 X117.179 Y145.303 E6.206
G1 X117.285 Y144.697 E6.22646
G1 X117.698 Y142.613 E6.29712
G1 X117.843 Y141.936 E6.32015
G1 X118.097 Y140.978 E6.35311
G1 X118.302 Y140.331 E6.37569
G1 X118.87 Y138.659 E6.43442
G1 X119.172 Y137.81 E6.46439
G1 X119.515 Y136.958 E6.49494
G1 X119.763 Y136.426 E6.51446
G1 X120.651 Y134.625 E6.58125
G1 X121.034 Y133.877 E6.6092
G1 X121.526 Y133.015 E6.64221
G1 X121.872 Y132.476 E6.66351
G1 X122.91 Y130.923 E6.72564
G1 X123.364 Y130.264 E6.75226
G1 X123.887 Y129.568 E6.78122
G1 X124.317 Y129.051 E6.80358
G1 X125.734 Y127.436 E6.87504
G1 X126.229 Y126.893 E6.89948
G1 X126.794 Y126.318 E6.92629
G0 F6000 X127.065 Y126.612
G1 F1200 X127.518 Y126.194 E6.94679
G1 X129.104 Y124.803 E7.01696
G1 X129.672 Y124.321 E7.04173
G1 X130.452 Y123.719 E7.0745
G1 X130.999 Y123.34 E7.09664
G1 X132.458 Y122.366 E7.15498
G1 X133.164 Y121.908 E7.18297
G1 X134.002 Y121.419 E7.21524
G1 X134.617 Y121.101 E7.23827
G1 X136.954 Y119.96 E7.32477
G1 X137.736 Y119.626 E7.35305
G1 X138.353 Y119.398 E7.37493
G1 X140.185 Y118.775 E7.43929
G1 X141.016 Y118.505 E7.46835
G1 X141.965 Y118.247 E7.50106
G1 X142.693 Y118.089 E7.52584
G1 X144.506 Y117.731 E7.5873
G1 X145.194 Y117.604 E7.61057
G1 X146.077 Y117.48 E7.64023
G1 X146.703 Y117.424 E7.66113
G1 X148.813 Y117.286 E7.73146
G1 X149.511 Y117.253 E7.7547
G1 X150.359 Y117.246 E7.78291
G1 X150.961 Y117.272 E7.80295
G1 X152.834 Y117.392 E7.86538
G1 X153.76 Y117.466 E7.89627
G1 X154.637 Y117.574 E7.92566
G1 X155.227 Y117.677 E7.94558
G1 X157.151 Y118.058 E8.01082
G1 X157.958 Y118.23 E8.03826
G1 X158.81 Y118.45 E8.06753
G1 X159.382 Y118.63 E8.08747
G1 X161.327 Y119.289 E8.15578
G1 X162.056 Y119.548 E8.18151
G1 X162.891 Y119.887 E8.21148
G1 X163.404 Y120.126 E8.2303
G1 X165.298 Y121.06 E8.30054
G1 X165.917 Y121.377 E8.32367
G1 X166.745 Y121.85 E8.35539
G1 X167.308 Y122.209 E8.3776
G1 X168.85 Y123.24 E8.43929
G1 X169.513 Y123.697 E8.46608
G1 X170.192 Y124.208 E8.49434
G1 X170.685 Y124.618 E8.51567
G1 X172.295 Y126.03 E8.58689
G1 X172.827 Y126.514 E8.61081
G1 X173.388 Y127.065 E8.63697
G1 X173.806 Y127.518 E8.65747
G1 X175.197 Y129.104 E8.72763
G1 X175.678 Y129.671 E8.75236
G1 X176.268 Y130.435 E8.78447
G1 X176.523 Y130.798 E8.79922
G1 X177.71 Y132.573 E8.87024
G1 X178.083 Y133.148 E8.89304
G1 X178.581 Y134.002 E8.92592
G1 X178.899 Y134.617 E8.94895
G1 X180.04 Y136.954 E9.03545
G1 X180.374 Y137.736 E9.06373
G1 X180.602 Y138.353 E9.08561
G1 X181.225 Y140.185 E9.14997
G1 X181.492 Y141.008 E9.17874
G1 X181.73 Y141.865 E9.20833
G1 X181.86 Y142.445 E9.2281
G1 X182.246 Y144.379 E9.29369
G1 X182.403 Y145.238 E9.32273
G1 X182.521 Y146.082 E9.35108
G1 X182.572 Y146.653 E9.37015
G1 X182.697 Y148.548 E9.43331
G1 X182.746 Y149.477 E9.46425
G1 X182.755 Y150.352 E9.49336
G1 X182.73 Y150.946 E9.51313
G1 X182.608 Y152.837 E9.57616
G1 X182.536 Y153.747 E9.60652
G1 X182.426 Y154.637 E9.63634
G1 X182.323 Y155.225 E9.6562
G1 X181.942 Y157.15 E9.72147
G1 X181.772 Y157.95 E9.74867
G1 X181.55 Y158.806 E9.77808
G1 X181.363 Y159.404 E9.79892
G1 X180.755 Y161.2 E9.86199
G1 X180.453 Y162.05 E9.89199
G1 X180.136 Y162.839 E9.92027
G1 X179.877 Y163.4 E9.94082
G1 X178.993 Y165.194 E10.00734
G1 X178.637 Y165.892 E10.0334
G1 X178.171 Y166.712 E10.06477
G1 X177.795 Y167.302 E10.08804
G1 X176.761 Y168.85 E10.14996
G1 X176.316 Y169.496 E10.17605
G1 X175.805 Y170.176 E10.20434
G1 X175.382 Y170.685 E10.22635
G1 X173.97 Y172.295 E10.29758
G1 X173.486 Y172.827 E10.3215
G1 X172.935 Y173.388 E10.34765
G1 X172.482 Y173.806 E10.36815
G1 X170.894 Y175.198 E10.43839
G1 X170.327 Y175.679 E10.46312
G1 X169.543 Y176.284 E10.49606
G1 X168.955 Y176.691 E10.51984
G1 X167.56 Y177.622 E10.57562
G1 X166.812 Y178.106 E10.60526
G1 X166.097 Y178.528 E10.63287
G1 X165.537 Y178.822 E10.65391
G1 X163.64 Y179.758 E10.72426
G1 X162.973 Y180.072 E10.74878
G1 X162.069 Y180.447 E10.78133
G1 X161.411 Y180.684 E10.8046
G1 X159.802 Y181.229 E10.8611
G1 X158.989 Y181.493 E10.88953
G1 X158.035 Y181.753 E10.92242
G1 X157.307 Y181.911 E10.94719
G1 X155.494 Y182.269 E11.00866
G1 X154.806 Y182.396 E11.03193
G1 X153.923 Y182.52 E11.06158
G1 X153.297 Y182.576 E11.08249
G1 X151.187 Y182.714 E11.15282
G1 X150.488 Y182.747 E11.17609
G1 X149.59 Y182.752 E11.20596
G1 X148.9 Y182.721 E11.22893
G1 X146.95 Y182.592 E11.29393
G1 X146.226 Y182.533 E11.31809
G1 X145.299 Y182.416 E11.34917
G1 X144.643 Y182.299 E11.37133
G1 X142.874 Y181.947 E11.43132
G1 X142.013 Y181.762 E11.46061
G1 X141.186 Y181.549 E11.48902
G1 X140.636 Y181.376 E11.50819
G1 X138.66 Y180.707 E11.57758
G1 X137.962 Y180.459 E11.60222
G1 X137.143 Y180.128 E11.6316
G1 X136.604 Y179.878 E11.65136
G1 X134.808 Y178.993 E11.71795
G1 X134.076 Y178.619 E11.74529
G1 X133.243 Y178.144 E11.77719
G1 X132.698 Y177.794 E11.79873
G1 X131.008 Y176.664 E11.86635
G1 X130.458 Y176.282 E11.88862
G1 X129.784 Y175.773 E11.91671
G1 X129.315 Y175.382 E11.93702
G1 X127.705 Y173.97 E12.00824
G1 X127.173 Y173.486 E12.03217
G1 X126.612 Y172.935 E12.05832
G1 X126.194 Y172.483 E12.0788
G1 X124.802 Y170.895 E12.14903
G1 X124.32 Y170.327 E12.17381
G1 X123.726 Y169.557 E12.20616
G1 X123.345 Y169.008 E12.22838
G1 X122.29 Y167.428 E12.29157
G1 X121.915 Y166.85 E12.31449
G1 X121.412 Y165.986 E12.34774
G1 X121.101 Y165.385 E12.37025
G1 X120.236 Y163.626 E12.43544
G1 X119.935 Y162.992 E12.45878
G1 X119.575 Y162.133 E12.48976
G1 X119.353 Y161.519 E12.51148
G1 X118.723 Y159.658 E12.57683
G1 X118.507 Y158.989 E12.60021
G1 X118.271 Y158.135 E12.62968
G1 X118.131 Y157.51 E12.65098
G1 X117.72 Y155.445 E12.72101
G1 X117.596 Y154.758 E12.74423
G1 X117.479 Y153.917 E12.77247
G1 X117.428 Y153.346 E12.79154
G1 X117.295 Y151.315 E12.85923
G1 X117.254 Y150.538 E12.88511
G1 X117.245 Y149.668 E12.91405
G1 X117.27 Y149.054 E12.93449
G1 X117.392 Y147.162 E12.99755
G1 X117.466 Y146.239 E13.02834
G1 X117.573 Y145.372 E13.0574
G1 X117.677 Y144.775 E13.07755
G1 X118.089 Y142.697 E13.14801
G1 X118.23 Y142.038 E13.17043
G1 X118.478 Y141.099 E13.20273
G1 X118.681 Y140.46 E13.22503
G1 X119.247 Y138.793 E13.28358
G1 X119.543 Y137.959 E13.31302
G1 X119.878 Y137.127 E13.34285
G1 X120.122 Y136.603 E13.36207
G1 X121.007 Y134.807 E13.42867
G1 X121.381 Y134.075 E13.45601
G1 X121.863 Y133.231 E13.48834
G1 X122.205 Y132.698 E13.5094
G1 X123.239 Y131.15 E13.57131
G1 X123.684 Y130.504 E13.59741
G1 X124.195 Y129.824 E13.6257
G1 X124.618 Y129.315 E13.64771
G1 X126.03 Y127.705 E13.71893
G1 X126.514 Y127.173 E13.74286
G1 X127.065 Y126.612 E13.76901
G0 F6000 X127.336 Y126.906
G1 F1200 X127.782 Y126.495 E13.78918
G1 X129.363 Y125.108 E13.85913
G1 X129.916 Y124.638 E13.88327
G1 X130.68 Y124.048 E13.91538
G1 X131.221 Y123.673 E13.93727
G1 X132.676 Y122.701 E13.99547
G1 X133.366 Y122.253 E14.02283
G1 X134.186 Y121.774 E14.05442
G1 X134.792 Y121.46 E14.07712
G1 X137.111 Y120.328 E14.16295
G1 X137.893 Y119.994 E14.19123
G1 X138.482 Y119.777 E14.21211
G1 X140.309 Y119.155 E14.2763
G1 X141.121 Y118.891 E14.3047
G1 X142.05 Y118.638 E14.33672
G1 X142.77 Y118.481 E14.36123
G1 X144.579 Y118.124 E14.42256
G1 X145.25 Y118 E14.44526
G1 X146.113 Y117.878 E14.47424
G1 X146.729 Y117.823 E14.49481
G1 X148.832 Y117.686 E14.56491
G1 X149.514 Y117.653 E14.58762
G1 X150.342 Y117.646 E14.61516
G1 X150.935 Y117.671 E14.6349
G1 X152.802 Y117.791 E14.69712
G1 X153.711 Y117.863 E14.72745
G1 X154.568 Y117.968 E14.75617
G1 X155.149 Y118.069 E14.77578
G1 X157.068 Y118.449 E14.84085
G1 X157.858 Y118.617 E14.86771
G1 X158.69 Y118.832 E14.89629
G1 X159.254 Y119.009 E14.91595
G1 X161.193 Y119.666 E14.98405
G1 X161.906 Y119.919 E15.00921
G1 X162.741 Y120.258 E15.03918
G1 X163.227 Y120.485 E15.05702
G1 X165.116 Y121.416 E15.12707
G1 X165.719 Y121.724 E15.14959
G1 X166.53 Y122.187 E15.18065
G1 X167.086 Y122.542 E15.20259
G1 X168.623 Y123.569 E15.26407
G1 X169.273 Y124.017 E15.29033
G1 X169.936 Y124.515 E15.31791
G1 X170.421 Y124.919 E15.3389
G1 X172.026 Y126.326 E15.40989
G1 X172.547 Y126.8 E15.43332
G1 X173.094 Y127.336 E15.45879
G1 X173.505 Y127.782 E15.47897
G1 X174.892 Y129.363 E15.54892
G1 X175.362 Y129.916 E15.57306
G1 X175.941 Y130.665 E15.60454
G1 X176.19 Y131.02 E15.61897
G1 X177.374 Y132.791 E15.68982
G1 X177.747 Y133.366 E15.71262
G1 X178.226 Y134.186 E15.7442
G1 X178.54 Y134.792 E15.7669
G1 X179.672 Y137.111 E15.85273
G1 X180.006 Y137.893 E15.88101
G1 X180.223 Y138.482 E15.90189
G1 X180.845 Y140.309 E15.96608
G1 X181.107 Y141.115 E15.99427
G1 X181.34 Y141.952 E16.02317
G1 X181.468 Y142.523 E16.04263
G1 X181.853 Y144.451 E16.10802
G1 X182.007 Y145.294 E16.13653
G1 X182.123 Y146.117 E16.16417
G1 X182.173 Y146.679 E16.18293
G1 X182.298 Y148.569 E16.24593
G1 X182.346 Y149.481 E16.27631
G1 X182.355 Y150.336 E16.30475
G1 X182.331 Y150.92 E16.32419
G1 X182.209 Y152.806 E16.38705
G1 X182.139 Y153.698 E16.41681
G1 X182.032 Y154.568 E16.44596
G1 X181.931 Y155.147 E16.46551
G1 X181.551 Y157.067 E16.53061
G1 X181.385 Y157.85 E16.55723
G1 X181.168 Y158.687 E16.58599
G1 X180.984 Y159.276 E16.60651
G1 X180.378 Y161.066 E16.66937
G1 X180.082 Y161.901 E16.69883
G1 X179.773 Y162.671 E16.72643
G1 X179.518 Y163.223 E16.74665
G1 X178.636 Y165.013 E16.81302
G1 X178.289 Y165.695 E16.83847
G1 X177.834 Y166.497 E16.86914
G1 X177.462 Y167.08 E16.89214
G1 X176.431 Y168.623 E16.95387
G1 X175.996 Y169.256 E16.97941
G1 X175.498 Y169.92 E17.00702
G1 X175.081 Y170.421 E17.0287
G1 X173.674 Y172.026 E17.09969
G1 X173.2 Y172.547 E17.12312
G1 X172.664 Y173.094 E17.14859
G1 X172.218 Y173.505 E17.16876
G1 X170.635 Y174.893 E17.23878
G1 X170.083 Y175.362 E17.26288
G1 X169.315 Y175.955 E17.29515
G1 X168.733 Y176.358 E17.31869
G1 X167.343 Y177.286 E17.37428
G1 X166.608 Y177.762 E17.40341
G1 X165.911 Y178.174 E17.43034
G1 X165.36 Y178.463 E17.45103
G1 X163.469 Y179.396 E17.52116
G1 X162.819 Y179.703 E17.54507
G1 X161.934 Y180.071 E17.57695
G1 X161.283 Y180.305 E17.59996
G1 X159.679 Y180.849 E17.65629
G1 X158.884 Y181.107 E17.68409
G1 X157.95 Y181.362 E17.71629
G1 X157.23 Y181.519 E17.7408
G1 X155.421 Y181.876 E17.80213
G1 X154.75 Y182 E17.82483
G1 X153.887 Y182.122 E17.85382
G1 X153.271 Y182.177 E17.87439
